web/public/images/baseline-visibility-off.svg

<svg width="20" height="20" viewBox="0 0 20 20" fill="none" xmlns="http://www.w3.org/2000/svg">
<path fill-rule="evenodd" clip-rule="evenodd" d="M5.16392 4.20917C5.16388 4.20918 5.16385 4.2092 5.16381 4.20922L2.95459 2L2 2.95459L3.98073 4.93532C2.20003 6.19067 0.800734 7.96808 0 10C1.57273 13.9909 5.45455 17 10 17C11.7401 17 13.3829 16.559 14.8362 15.7908L17.0247 17.9793L17.9793 17.0247L16.0193 15.0647C16.0193 15.0647 16.0193 15.0646 16.0194 15.0646L13.6556 12.7009C13.6556 12.7009 13.6556 12.7009 13.6555 12.7009L12.347 11.3924C12.347 11.3923 12.347 11.3923 12.347 11.3923L8.60773 7.65298C8.6077 7.653 8.60767 7.65302 8.60763 7.65304L7.29906 6.34446C7.29909 6.34444 7.29912 6.34442 7.29915 6.3444L5.16392 4.20917ZM10.2375 7.28286L12.7171 9.76255C12.604 8.44339 11.5566 7.39601 10.2375 7.28286ZM14.3326 11.378C14.4708 10.9433 14.5455 10.4803 14.5455 10C14.5455 7.49091 12.5091 5.45455 10 5.45455C9.5197 5.45455 9.05672 5.52917 8.62203 5.66744L6.55238 3.59779C7.63436 3.21189 8.79381 3 10 3C14.5455 3 18.4273 6.00909 20 10C19.3738 11.5891 18.3814 13.0225 17.1269 14.1723L14.3326 11.378ZM5.45455 10C5.45455 8.98878 5.7853 8.05435 6.34446 7.29906L7.65304 8.60763C7.41137 9.01491 7.27273 9.4909 7.27273 10C7.27273 11.5091 8.49091 12.7273 10 12.7273C10.5091 12.7273 10.9851 12.5886 11.3924 12.347L12.7009 13.6555C11.9457 14.2147 11.0112 14.5455 10 14.5455C7.49091 14.5455 5.45455 12.5091 5.45455 10Z" fill="white"/>
</svg>

<svg xmlns="http://www.w3.org/2000/svg" width="20" height="20" fill="none"><path fill="#fff" fill-rule="evenodd" d="M5.164 4.21 2.954 2 2 2.955l1.98 1.98A11.3 11.3 0 0 0 0 10c1.573 3.99 5.455 7 10 7 1.74 0 3.383-.441 4.836-1.21l2.189 2.19.954-.955-1.96-1.96-2.363-2.364-1.309-1.309-3.74-3.739L7.3 6.344zm5.074 3.073 2.48 2.48a2.72 2.72 0 0 0-2.48-2.48m4.095 4.095a4.547 4.547 0 0 0-5.71-5.71l-2.07-2.07A10.2 10.2 0 0 1 10 3c4.546 0 8.427 3.01 10 7a11.3 11.3 0 0 1-2.873 4.172zM5.455 10c0-1.011.33-1.946.89-2.7l1.308 1.308A2.7 2.7 0 0 0 7.273 10 2.724 2.724 0 0 0 10 12.727c.51 0 .985-.138 1.392-.38l1.309 1.309A4.547 4.547 0 0 1 5.455 10" clip-rule="evenodd"/></svg>
